X: 1698
T: the Old Vest and Cravat   #2
R: hornpipe, reel
%S: s:2 b:13(6+7)
B: O'Neill's 1850 #1698
O: F.O'Neill
M: 4/4
L: 1/8
K: D
(FG) \
| ABGA FGAB | cBcA d2(de) | fedc [1,3 AGFG | Adce d2 :|[2,4 AGED | D2DD D2 :: (FG) | Adde f2(ed) |
| dcAG A2(AG) | Adde f2(ed) | dced d2(de) || fdef defg | fdcA cdef | dfed cAGE | D2DD D2 :|
